static/assets/images/networks/xrpl-evm.svg

<svg width="256" height="256" viewBox="0 0 256 256" fill="none" xmlns="http://www.w3.org/2000/svg">
<path d="M128 256C198.692 256 256 198.692 256 128C256 57.3075 198.692 0 128 0C57.3075 0 0 57.3075 0 128C0 198.692 57.3075 256 128 256Z" fill="black"/>
<path d="M133.596 133.144C144.752 133.144 155.574 137.083 163.816 144.802L210 188H187.855L152.836 155.257C147.684 150.456 140.816 147.889 133.605 147.889C126.393 147.889 119.525 150.456 114.374 155.257L79.3548 188H57.2093L103.394 144.802C111.635 137.091 122.448 133.144 133.614 133.144H133.596ZM133.596 122.865C122.439 122.865 111.618 118.926 103.376 111.206L57.2005 68H79.346L114.365 100.743C119.516 105.544 126.384 108.111 133.596 108.111C140.807 108.111 147.676 105.544 152.827 100.743L187.846 68H209.991L163.807 111.198C155.565 118.909 144.752 122.856 133.587 122.856L133.596 122.865Z" fill="white"/>
<path d="M94.967 128.009L46.7223 168.806C43.1209 172.06 39 170.521 39 165.72V90.2894C39 85.4887 43.1209 83.95 46.7223 87.2032L94.967 128V128.009Z" fill="white"/>
</svg>

<svg xmlns="http://www.w3.org/2000/svg" fill="none" viewBox="0 0 256 256"><path fill="#000" d="M128 256c70.692 0 128-57.308 128-128S198.692 0 128 0 0 57.308 0 128s57.308 128 128 128"/><path fill="#fff" d="M133.596 133.144c11.156 0 21.978 3.939 30.22 11.658L210 188h-22.145l-35.019-32.743c-5.152-4.801-12.02-7.368-19.231-7.368s-14.08 2.567-19.231 7.368L79.354 188H57.21l46.185-43.198c8.241-7.711 19.054-11.658 30.22-11.658zm0-10.279c-11.157 0-21.978-3.939-30.22-11.659L57.2 68h22.146l35.019 32.743c5.151 4.801 12.019 7.368 19.231 7.368 7.211 0 14.08-2.567 19.231-7.368L187.846 68h22.145l-46.184 43.198c-8.242 7.711-19.055 11.658-30.22 11.658zm-38.629 5.144-48.245 40.797C43.121 172.06 39 170.521 39 165.72V90.29c0-4.801 4.12-6.34 7.722-3.087L94.967 128z"/></svg>
